public/general/img/icons/edit-icon.svg

<svg width="24" height="24" viewBox="0 0 24 24" fill="none" xmlns="http://www.w3.org/2000/svg">
<path d="M3 17.4601V20.5001C3 20.7801 3.22 21.0001 3.5 21.0001H6.54C6.67 21.0001 6.8 20.9501 6.89 20.8501L17.81 9.94006L14.06 6.19006L3.15 17.1001C3.05 17.2001 3 17.3201 3 17.4601ZM20.71 7.04006C21.1 6.65006 21.1 6.02006 20.71 5.63006L18.37 3.29006C17.98 2.90006 17.35 2.90006 16.96 3.29006L15.13 5.12006L18.88 8.87006L20.71 7.04006V7.04006Z" fill="#666666"/>
</svg>

<svg xmlns="http://www.w3.org/2000/svg" height="24px" viewBox="0 0 24 24" width="24px" fill="#FFFFFF"><path d="M0 0h24v24H0V0z" fill="none"/><path d="M3 17.46v3.04c0 .28.22.5.5.5h3.04c.13 0 .26-.05.35-.15L17.81 9.94l-3.75-3.75L3.15 17.1c-.1.1-.15.22-.15.36zM20.71 7.04c.39-.39.39-1.02 0-1.41l-2.34-2.34c-.39-.39-1.02-.39-1.41 0l-1.83 1.83 3.75 3.75 1.83-1.83z"/></svg>
